X:1
T:Title
%%score ( 1 2 3 ) ( 4 5 )
L:1/8
Q:1/4=102
M:4/4
K:Db
V:1 treble nm="Strings 1, Treble"
V:2 treble 
V:3 treble 
V:4 bass nm="Strings 1, Bass"
V:5 bass 
V:1
 A2 F2 E2 z2 | F6 z2 | A2 E2 [_C=D]2 E2 | [EA]8 | A2 F2 E2 D2 | F2 [A,DF]2 F2 [A,DF]2 | z4 B2 z2 | %7
w: ||||1.~What~ is~ sweet er,~|tell~ * me,~ *|pret|
 A6 z2 | [CA]2 [CE]2 [_C=D]2 [=CE]2 | A2 [CA]2 [CE]2 [CE]2 | [DF]2 [DF]2 [DE=G]2 [DE]2 | %11
w: rose?~|Fra grant~ in~ its~|beau * ty,~ *|Love liest~ flow'r~ that~|
 (3[CEA]2 [CEA]2 [CEA]2 (3[A,A]2 [A,A]2 [A,A]2 |[M:3/4][Q:1/4=136] A6 | =G6 | G6 | C2 E2 G2 | B6 | %17
w: grows.~ * * * * *||||||
 =A6 | A6 | D2 F2 A2 | [Bd]4 [Ac]2 | [Ac]4 [GB]2 | [GB]4 C2 | C2 E2 G2 | [Bd]4 [Ac]2 | %25
w: ||||||||
 [Ac]4 [GB]2 | [FB]4 F2 | D2 F2 A2 | A6 | =G6 | G6 | C2 E2 G2 | B6 | =A6 | A6 | D2 F2 A2 | d4 z2 | %37
w: |||Rose,~|rose,~|rose,~|Not~ till~ the~|whole~|world~|knows~|Of~ my~ dear~||
 D2 [B,D_F]2 [B,DFB]2 | B4 z2 | F4 z2 | F6 | E6[K:bass] | D6- | D6 |] %44
w: |||||||
V:2
 D6 D2- | D6 z2 | C4 z2 =C2- | C8 | D6 z2 | x8 | G2 A2 G2- [Gd]2 | z2 [A,DF]2 [A,DF]2 [A,DF]2 | %8
w: ||||||* a~ * *||
 x8 | x8 | x8 | x8 |[M:3/4] z2 [A,D]2 [A,D]2 | z2 [B,D]2 [B,D]2 | z2 [A,C]2 [A,C]2 | x6 | %16
w: ||||||||
 z2 [CEG]2 [CEG]2 | z2 [CEG]2 [CEG]2 | z2 [A,D]2 [A,D]2 | x6 | x6 | x6 | x6 | x6 | x6 | x6 | x6 | %27
w: |||||||||||
 x6 | z2 [A,D]2 [A,D]2 | z2 [B,D]2 [B,D]2 | z2 [A,C]2 [A,C]2 | x6 | z2 [CEG]2 [CEG]2 | %33
w: ||||||
 z2 [CEG]2 [CEG]2 | z2 [A,D]2 [A,D]2 | x6 | z2 [DGB]2 [DGB]2 | x6 | z2 [DFA]2 [A,DFA]2 | %39
w: ||||||
 z2 [=G,D]2 [G,DE]2 | z2 [A,D]2 [A,D]2 | z2[K:bass] [G,A,]2 [G,A,]2 | z2 [F,A,]2 [F,A,]2 | %43
w: ||||
 [F,A,]6 |] %44
w: |
V:3
 x8 | x8 | x8 | x8 | x8 | x8 | D8 | x8 | x8 | x8 | x8 | x8 |[M:3/4] x6 | x6 | x6 | x6 | x6 | x6 | %18
 x6 | x6 | x6 | x6 | x6 | x6 | x6 | x6 | x6 | x6 | x6 | x6 | x6 | x6 | x6 | x6 | x6 | x6 | x6 | %37
 x6 | x6 | x6 | x6 | x2[K:bass] x4 | x6 | x6 |] %44
V:4
 F,2 A,2 G,2 F,2 | [D,A,]6 z2 | G,4 F,2 G,2- | G,8 | F,2 A,2 G,2 F,2 | D,6 _C,2 | %6
 B,,2 F,,2 G,,2 B,,2 | D,6 z2 | A,,2- [A,,-G,]2 [A,,-F,]2 [A,,G,]2 | E,4 z4 | %10
 [D,A,]2 [B,,B,]2 B,2 =G,2 | A,,4 z4 |[M:3/4] [F,,F,]6 | [_F,,_F,]6 | [E,,E,]6 | %15
 E,2 [G,A,C]2 [G,A,C]2 | [G,,G,]6 | [G,,G,]6 | [F,,F,]6 | F,2 [A,D]2 [F,A,D]2 | %20
 E,2 [G,A,C]2 [G,A,C]2 | A,,2 [G,A,C]2 [G,A,C]2 | A,,2 [G,A,C]2 [G,A,C]2 | E,2 [G,A,C]2 [G,A,C]2 | %24
 E,2 [G,A,C]2 [G,A,C]2 | A,,2 [G,A,C]2 [G,A,C]2 | D,2 [F,A,D]2 [F,A,D]2 | D,2 z2 z2 | [F,,F,]6 | %29
 [_F,,_F,]6 | [E,,E,]6 | E,2 [G,A,C]2 [G,A,C]2 | [G,,G,]6 | [G,,G,]6 | [F,,F,]6 | %35
 F,2 [A,D]2 [F,A,D]2 | [G,,G,]4 z2 | [=G,,=G,]4 z2 | A,,6 | B,,6 | A,,6 | A,,2 B,,2 C,2 | %42
 D,2 A,,2 F,,2 | D,,6 |] %44
V:5
 D,8 | x8 | A,,8- | A,,8 | D,8 | x8 | x8 | x8 | E,2 z2 z4 | A,,4- [A,,A,]4 | z4 E,4 | x8 | %12
[M:3/4] x6 | x6 | x6 | x6 | x6 | x6 | x6 | x6 | x6 | x6 | x6 | x6 | x6 | x6 | x6 | x6 | x6 | x6 | %30
 x6 | x6 | x6 | x6 | x6 | x6 | x6 | x6 | x6 | x6 | x6 | x6 | x6 | x6 |] %44

